X:1
T:Sursum Corda (Lift Up Your Hearts)
C:Ancient preface dialog; chant setting traditional
S:Traditional Lutheran liturgy; public domain
M:C
L:1/4
K:C
%% Minister: The Lord be with you
G G G G | G G G | F E D2 ||
%% People: And also with you
E E E E | E D ||
%% Minister: Lift up your hearts
G G G G | G G G | A4 ||
%% People: We lift them up to the Lord
G G G G | G G G G | G G G | E D ||
%% Minister: Let us give thanks to the Lord our God
G G G G | G G G G | G G G G | G G G | A4 ||
%% People: It is right to give Him thanks and praise
G G G G | G G G G | G G G G | G G G | E D ||

## Musiquik
&0VVVV.VVV.UTc)TTTT.TS)VVVV.VVV.w)VVVV.VVVV.VVV.TS)VVVV.VVVV.VVVV.VVV.w)VVVV.VVVV.VVVV.VVV.TS)

#Lyrics
The Lord be with you. And also with you. Lift up your hearts. We lift them up to the Lord. Let us give thanks to the Lord our God. It is right to give Him thanks and praise.

#Citations and References

Words: Ancient preface dialog; public domain.
Music: 'Sursum Corda' Traditional chant versicle; ancient, public domain.
Setting: Lutheran Service Book (LSB), Divine Service; traditional.
copyright: public domain.

https://openhymnal.org
